X: 12
T: The Irish Washerwoman
R: jig
M: 6/8
L: 1/8
K: Gmaj
dc|:"G"BGG DGG|BGB dcB|"Am"cAA EAA|cAc "D"edc|
"G"BGG DGG|BGB dcB|"Am"cBc "D"Adc|[1"G"BGG Gdc:|[2"G"BGG Gga|]
|:"G"bgg dgg|bgb bag|"D"aff dff|afa agf|
"C"egg "G"dgg|"C"cgg "G"B2B|"Am"cBc "D"Adc|[1"G"BGG Gga:|[2"G"BGG G3|]


Tune 92	Setting 12640

